X: 669
T: Etse Âgâze Eğer
C: Ahmet Avni Konuk
O: Turkey
F: http://compmusic.upf.edu/node/140
N: rahatfeza--kupe--agirevfer--etse--ahmet_avni_konuk
N: makam= rahatfeza
N: form= kupe
N: usul= agirevfer = 9/4
M: 9/4
L: 1/16
K: C _2/4B ^3/4f  
Q: 1/4=72
%%MIDI tuningsystem comma53
z4 A4 =f4 f4 f4 e2g2 gffe f4 z4  | \
w:  Et *  se  â *  *  gâ  | 
z4 e2=f2 g2{a}g2 f2e2 e2f2 e2d2 c4 B4 z4  | 
w:  ze  *  *  *  *  e *  ğer  *  *  *  hey   | 
z4 c8 d4 e2=f2 e2g2 gffe f4 z4  | \
w:  hey  de yû  *  *  *  ol   | 
g4 _b4 a4 g4 =f3e d2e2 f2e2 f4 z4  | 
w:  hoş  *  *  e dâ    | 
z4 =f8 f4 f2e2 f2g2 a2g2 f3e d4  | \
w:  Nağ me si  *  *  *  üf  | 
z4 d2e2 d4 e4 d2c2 B2dc B4 c4 z4  | 
w:  tâ *  *  de  i  *  *  *  *  zâ  | 
z4 A2G2 A4 B2d2 c2{d}c2 B2A2 A3G F4 B4  | \
w:  re  *  *  o *  lur  *  *  *  *  Ra  | 
z4 A2B2 c4 B2A2 A3G G2G^F F8 z4  | 
w:  hat *  *  fe *  zâ    | 
|


